X: 28990
T: Natural Progression
R: reel
M: 4/4
K: Aminor
E/^F/GAB cDE=F-|Feec dBGA|E/^F/GAB ce^ga-|aged edcA|E/^F/GAB cDE=F-|
Fdec dBGA|1 E/^F/GAB c~E2e-|edcB cABG:|2 E/^F/GAB c~E2e-|edcB cABc||
AE~E2 ABc^g|aeed eaag|gedc BE~E2|~e2de fedc|
AE~E2 AGAB|c2Bd dB^GB|Aa~a2 gedg|1 edcB cABc:|2 edcB cdBG||

